public/images/present-alt.svg

<svg width="64" height="64" viewBox="0 0 64 64" fill="none" xmlns="http://www.w3.org/2000/svg">
<g opacity="0.5">
<path fill-rule="evenodd" clip-rule="evenodd" d="M25.9943 20.5587C25.4226 19.5559 24.114 19.5339 23.6123 20.5187C23.239 21.2514 23.5092 22.2114 24.2089 22.6381L28.7016 25.3778L27.9938 24.0664L25.9943 20.5587ZM20.399 18.4162C22.2238 14.8342 26.9839 14.9142 29.0632 18.5618L31.0881 22.1139L35.1755 29.688L28.9191 29.688C28.5867 29.688 28.2553 29.5926 27.9577 29.4111L22.5691 26.1249C20.0243 24.573 19.0413 21.0813 20.399 18.4162Z" fill="#7645D9"/>
<path fill-rule="evenodd" clip-rule="evenodd" d="M38.0377 20.5587C38.6093 19.5559 39.918 19.5339 40.4197 20.5187C40.793 21.2514 40.5227 22.2114 39.8231 22.6381L35.3304 25.3778L36.0381 24.0664L38.0377 20.5587ZM43.633 18.4162C41.8082 14.8342 37.0481 14.9142 34.9688 18.5618L32.9439 22.1139L28.8565 29.688L35.1128 29.688C35.4453 29.688 35.7767 29.5926 36.0742 29.4111L41.4629 26.1249C44.0077 24.573 44.9907 21.0813 43.633 18.4162Z" fill="#7645D9"/>
<path fill-rule="evenodd" clip-rule="evenodd" d="M17.5854 38.4001L46.3477 38.4001L46.3477 51.5351C46.3477 52.9489 45.2016 54.0951 43.7877 54.0951L20.1454 54.0951C18.7315 54.0951 17.5854 52.9489 17.5854 51.5351L17.5854 38.4001ZM48.9077 35.8401L48.9077 51.5351C48.9077 54.3628 46.6154 56.6551 43.7877 56.6551L20.1454 56.6551C17.3177 56.6551 15.0254 54.3628 15.0254 51.5351L15.0254 35.8401L48.9077 35.8401Z" fill="#7645D9"/>
<path d="M34.8237 38.4L29.1767 38.4L29.1767 56.64L34.8237 56.64L34.8237 38.4Z" fill="#7645D9"/>
<path d="M15.0588 41.92L15.0588 48.32L48.9412 48.32L48.9412 41.92L15.0588 41.92Z" fill="#7645D9"/>
<path fill-rule="evenodd" clip-rule="evenodd" d="M16.64 29.6874L47.36 29.6874C48.0669 29.6874 48.64 30.2605 48.64 30.9674L48.64 34.4874C48.64 35.1944 48.0669 35.7674 47.36 35.7674L16.64 35.7674C15.933 35.7674 15.3599 35.1944 15.3599 34.4874L15.3599 30.9674C15.3599 30.2605 15.933 29.6874 16.64 29.6874ZM47.36 27.1274C49.4807 27.1274 51.2 28.8467 51.2 30.9674L51.2 34.4874C51.2 36.6082 49.4807 38.3274 47.36 38.3274L16.64 38.3274C14.5192 38.3274 12.8 36.6082 12.8 34.4874L12.8 30.9674C12.7999 28.8467 14.5192 27.1274 16.6399 27.1274L47.36 27.1274Z" fill="#7645D9"/>
<path d="M34.8237 27.2001L29.1767 27.2001L29.1767 38.4001L34.8237 38.4001L34.8237 27.2001Z" fill="#7645D9"/>
<path d="M51.8586 19.3232L51.9567 18.9571C52.0944 18.4432 52.3124 18.0404 52.6109 17.7486C52.9222 17.4603 53.3025 17.1973 53.7517 16.9597C54.1717 16.728 54.5733 16.5396 54.9564 16.3945C55.3395 16.2493 55.6683 16.0758 55.9426 15.8739C56.217 15.6721 56.4007 15.3977 56.4936 15.0509C56.6279 14.5499 56.5427 14.1484 56.2381 13.8465C55.9497 13.5352 55.3945 13.2694 54.5723 13.0491C54.0328 12.9045 53.4808 12.8323 52.9162 12.8325C52.3551 12.8198 51.8607 12.8664 51.4331 12.9721L52.1301 10.3707C52.6674 10.2669 53.2761 10.2303 53.9563 10.2611C54.6493 10.2954 55.3812 10.4158 56.152 10.6223C57.6421 11.0216 58.6912 11.6538 59.2993 12.5189C59.9108 13.3712 60.0651 14.3625 59.7622 15.493C59.5694 16.2124 59.2651 16.7573 58.8491 17.1277C58.4367 17.4853 57.8858 17.8196 57.1967 18.1306C56.6147 18.4015 56.1235 18.6416 55.7232 18.851C55.3263 19.0476 55.0625 19.39 54.9317 19.8781L54.8646 20.1286L51.8586 19.3232ZM50.8098 22.6977L51.4087 20.4624L54.6652 21.335L54.0663 23.5702L50.8098 22.6977Z" fill="#AEA0D6"/>
<path d="M6.97155 44.0175L6.90953 43.786C6.82249 43.4612 6.81456 43.1717 6.88575 42.9176C6.96505 42.6614 7.09011 42.3972 7.26092 42.1251C7.41767 41.8655 7.57797 41.6354 7.74182 41.4349C7.90568 41.2343 8.03082 41.0354 8.11723 40.8381C8.20365 40.6409 8.21748 40.4327 8.15873 40.2134C8.07386 39.8967 7.90033 39.7038 7.63812 39.6348C7.38186 39.5555 6.99386 39.5855 6.47412 39.7247C6.13304 39.8161 5.80798 39.9511 5.49896 40.1297C5.18776 40.3001 4.93181 40.4818 4.73112 40.6749L4.29047 39.0304C4.55178 38.8037 4.87349 38.5912 5.25561 38.3931C5.64584 38.1928 6.08459 38.0274 6.57185 37.8968C7.51389 37.6444 8.28808 37.6589 8.89444 37.9403C9.49863 38.2137 9.89646 38.7076 10.088 39.4223C10.2098 39.8771 10.2154 40.2716 10.1048 40.6059C9.992 40.932 9.79611 41.2892 9.51712 41.6773C9.2841 42.0095 9.0911 42.2963 8.93813 42.5374C8.78297 42.7705 8.74674 43.0413 8.82943 43.3499L8.87186 43.5083L6.97155 44.0175ZM7.46401 46.1965L7.08538 44.7834L9.14406 44.2318L9.52268 45.6448L7.46401 46.1965Z" fill="#AEA0D6"/>
<path d="M11.7554 18.8126L11.6725 18.5035C11.5563 18.0696 11.5457 17.683 11.6408 17.3436C11.7467 17.0013 11.9137 16.6485 12.1419 16.2851C12.3512 15.9384 12.5653 15.631 12.7842 15.3631C13.003 15.0952 13.1702 14.8296 13.2856 14.5661C13.401 14.3027 13.4195 14.0245 13.341 13.7317C13.2277 13.3086 12.9959 13.051 12.6457 12.9589C12.3034 12.853 11.7852 12.893 11.091 13.079C10.6354 13.2011 10.2012 13.3813 9.7885 13.6198C9.37284 13.8475 9.03098 14.0902 8.76293 14.348L8.17438 12.1515C8.5234 11.8488 8.95309 11.5651 9.46347 11.3004C9.98468 11.0329 10.5707 10.8119 11.2215 10.6375C12.4797 10.3004 13.5138 10.3198 14.3237 10.6957C15.1307 11.0607 15.662 11.7205 15.9178 12.675C16.0805 13.2824 16.088 13.8094 15.9403 14.2559C15.7896 14.6915 15.528 15.1685 15.1554 15.6869C14.8441 16.1307 14.5863 16.5136 14.382 16.8358C14.1748 17.1471 14.1264 17.5088 14.2368 17.921L14.2935 18.1325L11.7554 18.8126ZM12.4131 21.7229L11.9074 19.8356L14.6571 19.0988L15.1628 20.9862L12.4131 21.7229Z" fill="#AEA0D6"/>
</g>
</svg>

<svg xmlns="http://www.w3.org/2000/svg" width="64" height="64" fill="none"  opacity=".5" xmlns:v="https://vecta.io/nano"><g fill-rule="evenodd" fill="#7645d9"><path d="M25.994 20.559c-.572-1.003-1.88-1.025-2.382-.04a1.66 1.66 0 0 0 .597 2.119l4.493 2.74-.708-1.311-2-3.508zm-5.595-2.143c1.825-3.582 6.585-3.502 8.664.146l2.025 3.552 4.087 7.574h-6.256c-.332 0-.664-.095-.961-.277l-5.389-3.286c-2.545-1.552-3.528-5.044-2.17-7.709z"/><path d="M38.038 20.559c.572-1.003 1.88-1.025 2.382-.04a1.66 1.66 0 0 1-.597 2.119l-4.493 2.74.708-1.311 2-3.508zm5.595-2.143c-1.825-3.582-6.585-3.502-8.664.146l-2.025 3.552-4.087 7.574h6.256a1.84 1.84 0 0 0 .961-.277l5.389-3.286c2.545-1.552 3.528-5.044 2.17-7.709zM17.585 38.4h28.762v13.135a2.56 2.56 0 0 1-2.56 2.56H20.145a2.56 2.56 0 0 1-2.56-2.56V38.4zm31.322-2.56v15.695a5.12 5.12 0 0 1-5.12 5.12H20.145a5.12 5.12 0 0 1-5.12-5.12V35.84h33.882z"/></g><path d="M34.824 38.4h-5.647v18.24h5.647V38.4z" fill="#7645d9"/><path d="M15.059 41.92v6.4h33.882v-6.4H15.059z" fill="#7645d9"/><path fill-rule="evenodd" d="M16.64 29.687h30.72a1.28 1.28 0 0 1 1.28 1.28v3.52a1.28 1.28 0 0 1-1.28 1.28H16.64a1.28 1.28 0 0 1-1.28-1.28v-3.52a1.28 1.28 0 0 1 1.28-1.28zm30.72-2.56a3.84 3.84 0 0 1 3.84 3.84v3.52a3.84 3.84 0 0 1-3.84 3.84H16.64a3.84 3.84 0 0 1-3.84-3.84v-3.52a3.84 3.84 0 0 1 3.84-3.84h30.72z" fill="#7645d9"/><path d="M34.824 27.2h-5.647v11.2h5.647V27.2z" fill="#7645d9"/><path d="M51.859 19.323l.098-.366c.138-.514.356-.917.654-1.209a5.35 5.35 0 0 1 1.141-.789 9.36 9.36 0 0 1 1.205-.565c.383-.145.712-.319.986-.521s.458-.476.551-.823c.134-.501.049-.902-.255-1.204-.288-.311-.844-.577-1.666-.797a6.36 6.36 0 0 0-1.656-.217c-.561-.013-1.056.034-1.483.14l.697-2.601c.537-.104 1.146-.14 1.826-.11a10.51 10.51 0 0 1 2.196.361c1.49.399 2.539 1.032 3.147 1.897.611.852.766 1.844.463 2.974-.193.719-.497 1.264-.913 1.635-.412.358-.963.692-1.652 1.003l-1.474.72c-.397.197-.661.539-.791 1.027l-.067.25-3.006-.805zm-1.049 3.375l.599-2.235 3.256.873-.599 2.235-3.256-.872zM6.972 44.018l-.062-.231c-.087-.325-.095-.614-.024-.868.079-.256.204-.52.375-.792.157-.26.317-.49.481-.69s.289-.399.375-.597a.92.92 0 0 0 .042-.625c-.085-.317-.258-.51-.521-.579-.256-.079-.644-.049-1.164.09a4.02 4.02 0 0 0-.975.405 3.59 3.59 0 0 0-.768.545L4.29 39.03c.261-.227.583-.439.965-.637.39-.2.829-.366 1.316-.496.942-.252 1.716-.238 2.323.044.604.273 1.002.767 1.194 1.482.122.455.127.849.017 1.184-.113.326-.309.683-.588 1.071l-.579.86c-.155.233-.191.504-.109.813l.042.158-1.9.509zm.492 2.179l-.379-1.413 2.059-.552.379 1.413-2.059.552zm4.291-27.384l-.083-.309c-.116-.434-.127-.82-.032-1.16a4.52 4.52 0 0 1 .501-1.058 7.95 7.95 0 0 1 .642-.922c.219-.268.386-.534.501-.797a1.23 1.23 0 0 0 .055-.834c-.113-.423-.345-.681-.695-.773-.342-.106-.86-.066-1.555.12a5.37 5.37 0 0 0-1.302.541c-.416.228-.758.47-1.026.728l-.589-2.197c.349-.303.779-.586 1.289-.851.521-.268 1.107-.489 1.758-.663 1.258-.337 2.292-.318 3.102.058.807.365 1.338 1.025 1.594 1.979.163.607.17 1.134.023 1.581-.151.436-.412.913-.785 1.431l-.773 1.149c-.207.311-.256.673-.145 1.085l.057.212-2.538.68zm.658 2.91l-.506-1.887 2.75-.737.506 1.887-2.75.737z" fill="#aea0d6"/></svg>
